packages/icons/src/components/Logo/assets/light/open-vpn.svg

<svg width="20" height="20" viewBox="0 0 20 20" fill="none" xmlns="http://www.w3.org/2000/svg">
<g>
<path d="M18 10.1692C18 5.65966 14.3067 2.00391 9.74986 2.00391C5.19498 2.00391 1.5 5.65966 1.5 10.1692C1.5 13.1647 3.13533 15.7751 5.56398 17.1979L6.09286 13.6978C5.30917 12.8345 4.82818 11.6963 4.82818 10.4442C4.82818 7.75396 7.03229 5.57236 9.74986 5.57236C12.4694 5.57236 14.6718 7.75396 14.6718 10.4442C14.6718 11.7076 14.185 12.8537 13.3901 13.7168L13.9168 17.2094C16.3567 15.7902 18 13.174 18 10.1692V10.1692Z" fill="#FF7A24"/>
<path d="M10.6552 12.6387L11.6574 17.9962H7.78544L8.78376 12.6481C7.79672 12.2744 7.09119 11.3295 7.09119 10.2142C7.09119 8.77214 8.26286 7.60352 9.70612 7.60352C11.1516 7.60352 12.3211 8.77214 12.3211 10.2142C12.3211 11.3202 11.629 12.2591 10.6552 12.6387V12.6387Z" fill="#123467"/>
</g>
<defs>
<clipPath id="clip0_341_650">
<rect width="16.5" height="16" fill="white" transform="translate(1.5 2)"/>
</clipPath>
</defs>
</svg>

<svg xmlns="http://www.w3.org/2000/svg" width="20" height="20" fill="none" viewBox="0 0 20 20">
    <path fill="#ff7a24" d="M18 10.17c0-4.51-3.693-8.166-8.25-8.166-4.555 0-8.25 3.656-8.25 8.165 0 2.996 1.635 5.606 4.064 7.029l.529-3.5a4.82 4.82 0 0 1-1.265-3.254c0-2.69 2.204-4.872 4.922-4.872 2.72 0 4.922 2.182 4.922 4.872a4.8 4.8 0 0 1-1.282 3.273l.527 3.492C16.357 15.79 18 13.174 18 10.17"/>
    <path fill="#123467" d="m10.655 12.639 1.002 5.357H7.785l.999-5.348a2.61 2.61 0 0 1-1.693-2.434 2.613 2.613 0 0 1 2.615-2.61 2.61 2.61 0 0 1 2.615 2.61 2.6 2.6 0 0 1-1.666 2.425"/>
</svg>
